X:244
T:Top of Ben Lomond, The
C:Joe Buchanan's Scottish Tome - Page 300.2
I:300 2
Z:Carl Allison
R:Jig
L:1/8
M:6/8
K:D
a | "D"f>af "A d"d>fd | "G"B<dB "F#"A2 "D"B | "D"d>ef "Bm"a>fd | "E7"e>fd "A"e2 a |
"D"f>af "A d"d>fd | "G"B<dB "F#"A2 "D"B | "Bm"d>ef "A7"a>fe | "D"d>ed d2 :|
g | "D"a2 "A d"A f2 A | "G"B<dB "F#"A2 "D"B | "D"d>ef "Bm"a>fd | "E7"e>fd "A"e2 g |
"D"a2 "A d"A f2 A | "G"B<dB "F#"A2 "D"B | "Bm"d>ef "A7"a>fe | "D"d>ed d2 :|

